X: 1
T: MOLL ROE IN THE MORNING -- JIG
B: Ryan's Mammoth Collection of Fiddle Tunes
R: jig
M: 9/8
L: 1/8
Z: Contributed 20000926194919 by John Chambers John.Chambers:weema.com
K: D
UA | ddd efd cde | fff gef (g2A) |ddd efd cde | fga gec d2:|
|: uA | aff ged cde | aff gef g3 | aff ged cde | fga gec d2 :|
